symbols/web/info/materialsymbolsoutlined/info_wght300gradN25fill1_40px.svg

<svg xmlns="http://www.w3.org/2000/svg" height="40" width="40"><path d="M19.083 27.833h2v-9.5h-2ZM20 15.667q.5 0 .833-.313.334-.312.334-.812 0-.542-.334-.875-.333-.334-.833-.334-.542 0-.854.334-.313.333-.313.875 0 .5.334.812.333.313.833.313Zm0 19.958q-3.25 0-6.083-1.229-2.834-1.229-4.959-3.354-2.125-2.125-3.354-4.959Q4.375 23.25 4.375 20t1.229-6.104q1.229-2.854 3.354-4.958 2.125-2.105 4.959-3.334Q16.75 4.375 20 4.375t6.104 1.229q2.854 1.229 4.958 3.334 2.105 2.104 3.334 4.958T35.625 20q0 3.25-1.229 6.083-1.229 2.834-3.334 4.959-2.104 2.125-4.958 3.354T20 35.625Z"/></svg>

<svg xmlns="http://www.w3.org/2000/svg" height="40" width="40"><path d="M20 35.625Q16.708 35.625 13.854 34.417Q11 33.208 8.896 31.104Q6.792 29 5.583 26.146Q4.375 23.292 4.375 20Q4.375 16.708 5.583 13.854Q6.792 11 8.896 8.896Q11 6.792 13.854 5.583Q16.708 4.375 20 4.375Q23.292 4.375 26.146 5.583Q29 6.792 31.104 8.896Q33.208 11 34.417 13.854Q35.625 16.708 35.625 20Q35.625 23.292 34.417 26.146Q33.208 29 31.104 31.104Q29 33.208 26.146 34.417Q23.292 35.625 20 35.625ZM20 15.667Q20.5 15.667 20.833 15.354Q21.167 15.042 21.167 14.542Q21.167 14.042 20.833 13.688Q20.5 13.333 20 13.333Q19.458 13.333 19.146 13.667Q18.833 14 18.833 14.542Q18.833 15.042 19.167 15.354Q19.5 15.667 20 15.667ZM19.083 27.833H21.083V18.333H19.083Z"/></svg>
